X: 551
P: Longways for as many as will
M: 6/4
L: 1/4
K: G
d |\
(gd)g (dB)G | (FG)A A2B | c>de efg | f>ga f2f |\
(gd)g (dB)G | (FG)A A2B | c>de dcB | A2G G2 |]
d |\
d>ed c2B | c2B A2e | e>=fe eAd | d2^c d2a |\
f>ef gfe | d>cB cBA | F2G A2B | c>dc B2z |\

